X: 1
T:Hobb's Favorite -- Reel
M:2/4
L:1/16
R:reel
B:Ryan's Mammoth Collection
Z:Contributed by Ray Davies,  ray:davies99.freeserve.co.uk=0D
K:D
u((3ABc)|.d2(cA) .B2(AF)|(DC).D.F (EB,).B,.E|DFAF DFAd|cABc dABc|
.d2(cA) .B2(AF)|(DC).D.F (EB,).B,.E|DFAF DFAd|1 cABc d2:|2 cABc d2(Bc)||
(df).B.c dBfd|(cA).A.B cAec|(df).B.c dBfd|(ce).A.c (3BBB.B.c|
(df).B.c dBfd|(ce).A.B cAeg|((3fgf).e.c ((3ded).c.A|1 BABc d2Bc:|2 BABc =
d2||
